X:11734
T:New German Waltz,The. WM.106
T:German Waltz. WM.106
M:3/8
L:1/8
Q:30
S:Wm.Mittell's MS,New Romney,Kent,1799
R:Waltz
O:England
A:Kent
N:Compare with "German Waltz" No 65.
D:
Z:vmp.Chris Partington
K:FMaj
c/B/|AAG|""Ffe/d/|ccB|c2c/c/|AAG|F2f|(fed)|c2:|!
|:c|gcc|acc|cba|age|fed|cef|gfe|f2:|!
|:A/B/|cAc|fed|dcc|c2A/c/|cBB|A2G/B/|BAA|A2B/B/|!
cAc|fed|dcc|c2A/c/|cBB|B2G/E/|Fff|f2:|]
W:Says four semiquavers in MS |]
